!! 00000] TT[00
!! NN
!!!OTL: Shier yue huaming
!!!ARE: Asia, China,ÿHenan, Yongcheng, aber auch Shandong und Anhui)
!! Ethnic Group: Han
!! IV, 145
!!!SCT: C0392
!!!YEM: Copyright 1995, estate of Helmut Schaffrath.
**kern
*ICvox
*Ivox
*M2/4
*k[b-]
*F:
{8cc
8cc
8a
8cc
=1
16dd
16ff
8a
4cc
=2
8cc
8a
4g
=3
16dd
16ff
8a
4cc
=4
8cc
8a
4g}
=5
{8cc
8g
4cc
=6
16dd
16ff
8dd
4cc
=7
8f
8a
4g
=8
8f
8a
8g
8f
=9
8f
8d
4c}
==
!!!AGN: Xiaodiao. Siji huahui
!! aber nicht 12 Monate: die Enden von zwei Saetzen haben jeweils
!!    als Reim das gleiche Wort.
!!!ONB: ESAC (Essen Associative Code) Database: CHINA
!!!AMT: simple duple
!!!AIN: vox
!!!EED: Helmut Schaffrath
!!!EEV: 1.0
*-
